X:4252
L:1/8
M:2/2
K:Amix
 B2 d2 B2 | edBA GEED | E6- E(E | G2) AG EDED | (DE-) E2- E2 EE | E2 E2 (DE)EE | EGGA BAGE | 
 EDEE E2 E2 | B,(DE)E EGAG | (AB-) B4 !slide!B2- | B2 B2 B,(DE)E | E2 GG BAGE | (ED)EE E2 GG | 
[M:3/2] (ED) B,2 !slide!E6 || B,D |[M:2/2] [B,E]2 dd BBed | BAGE E(DE)B | eB d2 BA ^G2 | 
 (AB-) B2- B2 (A2 | B3) (A B3) B | e2 de Bded |[M:3/2] BAGE ED E4- E(E |[M:2/2] G2) AG EDB,B, | 
[M:7/8] (D E2) E E2 E4 E4 ||

